X:9
T:Going to the Well for Water
Z: id:dc-slide-12
M:6/8
L:1/8
K:D Major
e|fgf fed|efe edc|ded dcB|cdc cBA|!
GBB GBB|FAA FAA|EDE e2d|cBc d2:|!
B|Aff Aff|Aff fed|Bgg Bgg|Bgg gfe|!
cdc BcB|Ace a2f|gfe ABc|dfe d2:|!

